src/android-archive.svg

<?xml version="1.0" encoding="utf-8"?>
<!-- Generated by IcoMoon.io -->
<!DOCTYPE svg PUBLIC "-//W3C//DTD SVG 1.1//EN" "http://www.w3.org/Graphics/SVG/1.1/DTD/svg11.dtd">
<svg version="1.1" xmlns="http://www.w3.org/2000/svg" xmlns:xlink="http://www.w3.org/1999/xlink" width="512" height="512" viewBox="0 0 512 512">
<path fill="#000000" d="M453.594 100.001l-32.353-39.299c-5.772-8.075-16.158-12.702-26.577-12.702h-277.329c-10.416 0-20.801 4.627-26.576 12.702l-32.351 39.299c-6.94 6.922-10.408 17.334-10.408 28.885v288.89c0 25.424 20.8 46.224 46.225 46.224h323.553c25.424 0 46.222-20.8 46.222-46.225v-288.89c0-11.55-3.463-21.962-10.406-28.884zM256 383.109l-127.11-127.109h80.89v-46.224h92.443v46.224h80.89l-127.113 127.109zM96.534 94.221l18.486-23.111h277.331l21.965 23.111h-317.782z"></path>
</svg>

<?xml version="1.0" encoding="utf-8"?>
<!-- Generator: Adobe Illustrator 16.2.1, SVG Export Plug-In . SVG Version: 6.00 Build 0)  -->
<!DOCTYPE svg PUBLIC "-//W3C//DTD SVG 1.1//EN" "http://www.w3.org/Graphics/SVG/1.1/DTD/svg11.dtd">
<svg version="1.1" id="Layer_1" xmlns="http://www.w3.org/2000/svg" xmlns:xlink="http://www.w3.org/1999/xlink" x="0px" y="0px"
	 width="512px" height="512px" viewBox="0 0 512 512" enable-background="new 0 0 512 512" xml:space="preserve">
<g>
	<path d="M453.594,100.001l-32.353-39.299C415.469,52.627,405.083,48,394.664,48H117.335c-10.416,0-20.801,4.627-26.576,12.702
		l-32.351,39.299C51.468,106.923,48,117.335,48,128.886v288.89C48,443.2,68.8,464,94.225,464h323.553
		C443.202,464,464,443.2,464,417.775v-288.89C464,117.335,460.537,106.923,453.594,100.001z M256,383.109L128.89,256h80.89v-46.224
		h92.443V256h80.89L256,383.109z M96.534,94.221l18.486-23.111h277.331l21.965,23.111H96.534z"/>
</g>
</svg>
